X: 10684
T: Down The Hill
R: jig
M: 6/8
K: Gdorian
|:G/F/|DGG G2A|B/A/G/A/B/G/ A/G/F/G/A/F/|G/F/D/C/D/E/ F2G|A{dc}BG FDC|
DGG G2A/B/|A/G/F/G/A/B/ cAc|d/e/fd cAd|~G3 G2:|
|:B/c/|dgg g2a|b/a/g/a/b/g/ afd|cff f2g|a/g/f/g/a/f/ gfd|
dgg g2a|b/a/g/a/b/g/ a/g/f/g/a/f/|gfd cAd|1 ~G3 G2:|2 ~G3 G=Bd||
|:[M:9/8] gd=B GB/d/G/B/ d/G/=B/d/{A_B}c|[M:6/8]fcA F>Ac/A/|F/E/F/G/A/B/ cBA|
B/A/G/A/B c/B/A/B/c/A/|dgg gg/a/b/a/|gfd cAd|1 ~G3 G=Bd:|2 ~G3 G3||

